icons/svg/video-effect_12.svg

<?xml version="1.0" encoding="UTF-8"?>
<svg width="12px" height="12px" viewBox="0 0 12 12" version="1.1" xmlns="http://www.w3.org/2000/svg" xmlns:xlink="http://www.w3.org/1999/xlink">
    <!-- Generator: Sketch 58 (84663) - https://sketch.com -->
    <title>video-effect_12</title>
    <desc>Created with Sketch.</desc>
    <g id="New-Icon" stroke="none" stroke-width="1" fill="none" fill-rule="evenodd">
        <g id="video-effect_12" fill="#171B1F">
            <g id="fill">
                <path d="M11.0916,0.884 C11.6625375,1.45775 11.6982211,2.35845312 11.2027707,2.96812842 L11.0966,3.086 L2.6526,11.545 C2.3596,11.838 1.9696,12 1.5556,12 C1.19335,12 0.849475,11.8759687 0.573549219,11.6486738 L0.4596,11.545 C-0.1132125,10.9721875 -0.149013281,10.0697852 0.347253809,9.4598938 L0.4536,9.342 L8.8976,0.884 C9.5016,0.279 10.4856,0.278 11.0916,0.884 Z M9.9926,1.466 C9.887,1.466 9.7814,1.498 9.692184,1.562 L9.6286,1.616 L1.1846,10.075 C0.9836,10.276 0.9836,10.605 1.1846,10.807 C1.1846,10.807 1.1906,10.812 1.1906,10.812 C1.36482222,10.9871111 1.6520321,11.0057778 1.85136269,10.870107 L1.9216,10.812 L10.3656,2.354 C10.5666,2.152 10.5666,1.824 10.3656,1.622 C10.2616,1.517 10.1266,1.466 9.9926,1.466 Z M9.9318,5.697 C10.2178,5.697 10.4488,5.928 10.4488,6.214 L10.4488,6.214 L10.4488,7.25 L11.4828,7.25 C11.7688,7.25 11.9998,7.482 11.9998,7.768 C11.9998,8.054 11.7688,8.286 11.4828,8.286 L11.4828,8.286 L10.4488,8.286 L10.4488,9.322 C10.4488,9.608 10.2178,9.839 9.9318,9.839 C9.6468,9.839 9.4148,9.608 9.4148,9.322 L9.4148,9.322 L9.4148,8.286 L8.3808,8.286 C8.0948,8.286 7.8638,8.054 7.8638,7.768 C7.8638,7.482 8.0948,7.25 8.3808,7.25 L8.3808,7.25 L9.4148,7.25 L9.4148,6.214 C9.4148,5.928 9.6468,5.697 9.9318,5.697 Z M1.6599,3.6247 C1.9459,3.6247 2.1769,3.8567 2.1769,4.1427 C2.4629,4.1427 2.6939,4.3747 2.6939,4.6607 C2.6939,4.9477 2.4629,5.1787 2.1769,5.1787 C2.1769,5.4647 1.9459,5.6967 1.6599,5.6967 C1.3739,5.6967 1.1429,5.4647 1.1429,5.1787 C0.8569,5.1787 0.6259,4.9477 0.6259,4.6607 C0.6259,4.3747 0.8569,4.1427 1.1429,4.1427 C1.1429,3.8567 1.3739,3.6247 1.6599,3.6247 Z M4.7619,0.0003 C5.01612222,0.0003 5.22688765,0.182818519 5.27058587,0.424947462 L5.2789,0.5183 L5.2789,1.0353 L5.7959,1.0353 C6.0819,1.0353 6.3129,1.2673 6.3129,1.5533 C6.3129,1.80841111 6.13038148,2.01927531 5.88895487,2.0629845 L5.7959,2.0713 L5.2789,2.0713 L5.2789,2.5893 C5.2789,2.8753 5.0479,3.1073 4.7619,3.1073 C4.50767778,3.1073 4.29691235,2.92399136 4.25321413,2.68238916 L4.2449,2.5893 L4.2449,2.0713 L3.7279,2.0713 C3.4419,2.0713 3.2109,1.8403 3.2109,1.5533 C3.2109,1.29907778 3.39341852,1.08752222 3.63484513,1.04364842 L3.7279,1.0353 L4.2449,1.0353 L4.2449,0.5183 C4.2449,0.2313 4.4759,0.0003 4.7619,0.0003 Z"></path>
            </g>
        </g>
    </g>
</svg>

<svg width="12" height="12" xmlns="http://www.w3.org/2000/svg"><path d="M11.092.884c.57.574.606 1.474.11 2.084l-.105.118-8.444 8.459A1.543 1.543 0 011.556 12c-.363 0-.707-.124-.982-.351l-.114-.104A1.56 1.56 0 01.347 9.46l.107-.118L8.898.884a1.552 1.552 0 012.194 0zm-1.1.582a.515.515 0 00-.3.096l-.063.054-8.444 8.459a.52.52 0 000 .732l.006.005a.529.529 0 00.66.058l.07-.058 8.445-8.458a.52.52 0 00-.373-.888zm-.06 4.231c.286 0 .517.231.517.517V7.25h1.034a.517.517 0 010 1.036h-1.034v1.036a.516.516 0 11-1.034 0V8.286H8.38a.517.517 0 010-1.036h1.034V6.214c0-.286.232-.517.517-.517zM1.66 3.625c.286 0 .517.232.517.518a.517.517 0 010 1.036.517.517 0 11-1.034 0 .517.517 0 01.517-1.554zM4.762 0c.254 0 .465.183.509.425l.008.093v.517h.517a.517.517 0 01.093 1.028l-.093.008h-.517v.518a.517.517 0 01-1.026.093l-.008-.093v-.518h-.517a.518.518 0 01-.093-1.028l.093-.008h.517V.518c0-.287.23-.518.517-.518z" fill="#171B1F" fill-rule="evenodd"/></svg>
